public/about/comic-bubbles/comic-bubble4.svg

<svg width="229" height="138" viewBox="0 0 229 138" fill="none" xmlns="http://www.w3.org/2000/svg">
<g clip-path="url(#clip0_6_11)">
<path d="M158.01 94.6286L200.948 98.5714L190.07 88.7143L179.193 78.8571L183.773 77.9451L226.71 69.3943L204.383 64.0382L175.758 57.1714L182.102 52.0457L205.528 33.12L188.925 35.1865L158.01 39.0343L157.438 31.5429L155.72 9.06857L153.303 10.6457L123.088 30.36L118.686 26.8114L99.615 11.4343L90.1136 28.3886L87.02 33.9086L45.4287 21.2914L38.93 19.32L50.0695 35.4857L54.96 42.5829L15.0282 44.9486L1.71753 45.7371L34.35 63.9149L40.6475 67.4229L24.1517 80.8286L74.9975 79.6457L64.5538 89.297L53.0899 104.88L50.38 108.563L100.76 88.32L111.065 123.349L124.805 100.937L131.103 90.2914L163.511 107.64L158.01 94.6286Z" fill="#F7F7F7"/>
<path d="M45.4287 21.2914L87.02 33.9086L90.1136 28.3886L40.6475 13.4057L45.4287 21.2914Z" fill="black"/>
<path d="M54.96 42.5829L50.0695 35.4857L3.435 38.2457L15.0281 44.9486L54.96 42.5829Z" fill="black"/>
<path d="M40.6475 67.4229L34.35 63.9149L13.74 80.8286H24.1517L40.6475 67.4229Z" fill="black"/>
<path d="M64.6925 89.1086L58.395 89.297L45.2275 107.64L53.0898 104.88L64.5537 89.297L64.6925 89.1086Z" fill="black"/>
<path d="M179.193 78.8571L190.07 88.7143H195.223L183.773 77.9451L179.193 78.8571Z" fill="black"/>
<path d="M175.757 57.1714L204.382 64.0382L218.122 61.1143L182.102 52.0457L175.757 57.1714Z" fill="black"/>
<path d="M158.01 39.0343L188.925 35.1865L199.23 26.8114L157.438 31.5429L158.01 39.0343Z" fill="black"/>
<path d="M123.087 30.36L153.303 10.6457V1.57715L118.686 26.8114L123.087 30.36Z" fill="black"/>
<path d="M24.1517 80.8286L12.0225 90.6857L58.395 89.297L64.6925 89.1086L64.5537 89.297L74.9975 79.6457L24.1517 80.8286Z" fill="black"/>
<path d="M92.1725 99.7543L103.05 136.423L111.065 123.349L100.76 88.32L50.38 108.563L42.9375 118.68L92.1725 99.7543Z" fill="black"/>
<path d="M124.805 100.937L171.177 125.777L163.511 107.64L131.102 90.2914L124.805 100.937Z" fill="black"/>
<path d="M124.805 100.937L171.178 125.777L163.511 107.64M124.805 100.937L111.065 123.349M124.805 100.937L131.103 90.2914L163.511 107.64M163.511 107.64L158.01 94.6286L200.948 98.5714L190.07 88.7143M111.065 123.349L103.05 136.423L92.1725 99.7543L42.9375 118.68L50.38 108.563M111.065 123.349L100.76 88.32L50.38 108.563M190.07 88.7143L179.193 78.8572L183.773 77.9451M190.07 88.7143H195.223L183.773 77.9451M183.773 77.9451L226.71 69.3943L204.383 64.0382M204.383 64.0382L175.758 57.1714L182.102 52.0457M204.383 64.0382L218.123 61.1143L182.102 52.0457M182.102 52.0457L205.528 33.12L188.925 35.1865M188.925 35.1865L158.01 39.0343L157.438 31.5429M188.925 35.1865L199.23 26.8114L157.438 31.5429M157.438 31.5429L155.72 9.06858L153.303 10.6457M153.303 10.6457L123.088 30.36L118.686 26.8114M153.303 10.6457V1.57715L118.686 26.8114M118.686 26.8114L99.615 11.4343L90.1136 28.3886M90.1136 28.3886L87.02 33.9086L45.4287 21.2914M90.1136 28.3886L40.6475 13.4057L45.4287 21.2914M45.4287 21.2914L38.93 19.32L50.0695 35.4857M50.0695 35.4857L54.96 42.5829L15.0282 44.9486M50.0695 35.4857L3.43503 38.2457L15.0282 44.9486M15.0282 44.9486L1.71753 45.7372L34.35 63.9149M34.35 63.9149L40.6475 67.4229L24.1517 80.8286M34.35 63.9149L13.74 80.8286H24.1517M24.1517 80.8286L12.0225 90.6857L58.395 89.297M24.1517 80.8286L74.9975 79.6457L64.5538 89.297M58.395 89.297L64.6925 89.1086L64.5538 89.297M58.395 89.297L45.2275 107.64L53.0899 104.88M64.5538 89.297L53.0899 104.88M53.0899 104.88L50.38 108.563" stroke="black"/>
<path d="M58.846 59.4436L57.2911 59.5974C54.9587 59.828 53.9078 61.1096 54.1385 63.4419L54.5999 68.1067C54.8306 70.4391 56.1121 71.4899 58.4445 71.2592L59.9994 71.1054C62.3317 70.8747 63.3826 69.5932 63.1519 67.2608C62.9212 64.9285 61.6397 63.8776 59.3073 64.1083L57.7524 64.2621C57.4933 64.2877 57.1079 64.3599 56.5962 64.4785L56.4709 63.2113C56.394 62.4338 56.7443 62.0066 57.5217 61.9297L59.0766 61.7759C59.8541 61.6991 60.2685 61.9198 60.3197 62.4381L62.6521 62.2074C62.447 60.1342 61.1783 59.2129 58.846 59.4436ZM59.7687 68.7731L58.2138 68.9268C57.4363 69.0037 57.0091 68.6535 56.9323 67.876C56.8554 67.0985 57.2056 66.6714 57.9831 66.5945L59.538 66.4407C60.3155 66.3638 60.7426 66.7141 60.8195 67.4915C60.8964 68.269 60.5462 68.6962 59.7687 68.7731ZM55.5867 72.1307C54.5899 71.3133 54.0018 69.9976 53.8224 68.1836L53.3611 63.5188C53.0791 60.6682 54.3635 59.1019 57.2142 58.8199L58.7691 58.6661C60.5054 58.4944 61.8913 58.8284 62.9269 59.668C63.9672 60.502 64.5875 61.9322 64.788 63.9588L62.6422 64.171C64.1752 65.0661 65.0315 66.4207 65.2109 68.2348C65.4928 71.0855 64.2085 72.6518 61.3578 72.9337L59.8029 73.0875C57.9888 73.2669 56.5834 72.948 55.5867 72.1307ZM69.3289 70.1827L70.8838 70.0289C73.2161 69.7982 74.267 68.5167 74.0363 66.1843L73.9594 65.4069C73.7287 63.0745 72.4472 62.0237 70.1148 62.2543L68.5599 62.4081C68.3008 62.4338 67.9154 62.5059 67.4037 62.6245L67.2399 60.9686L73.4596 60.3534L73.2289 58.021L64.6769 58.8669L65.3689 65.864L67.7013 65.6333C67.65 65.115 68.0131 64.8174 68.7906 64.7405L70.3455 64.5867C71.123 64.5098 71.5501 64.8601 71.627 65.6376L71.7039 66.415C71.7808 67.1925 71.4305 67.6196 70.6531 67.6965L69.0982 67.8503C68.3207 67.9272 67.9064 67.7065 67.8551 67.1882L65.5227 67.4189C65.7278 69.4921 66.9965 70.4134 69.3289 70.1827ZM70.9265 66.4919L70.149 66.5688C69.9676 66.5867 69.8612 66.7281 69.8298 66.9929L70.5762 66.9191C70.8353 66.8935 70.9521 66.7511 70.9265 66.4919ZM75.211 58.2175L75.5955 62.1048L73.4497 62.317C74.9827 63.2122 75.839 64.5668 76.0184 66.3808L76.0953 67.1583C76.3772 70.009 75.0929 71.5753 72.2422 71.8572L70.6873 72.011C68.951 72.1827 67.5624 71.849 66.5216 71.0099C65.4866 70.1754 64.8688 68.7449 64.6684 66.7183L63.8225 58.1663L73.9295 57.1667L75.211 58.2175ZM79.5108 57.3997L80.6642 69.0616L82.9965 68.8309L82.5352 64.1662L85.2563 63.897C87.5886 63.6664 88.6395 62.3848 88.4088 60.0525C88.1781 57.7201 86.8966 56.6692 84.5642 56.8999L79.5108 57.3997ZM82.0738 59.5014L84.7949 59.2323C85.5724 59.1554 85.9995 59.5057 86.0764 60.2831C86.1533 61.0606 85.8031 61.4878 85.0256 61.5647L82.3045 61.8338L82.0738 59.5014ZM79.9636 69.9159L78.6564 56.6992L84.4873 56.1225C86.3014 55.9431 87.7068 56.262 88.7036 57.0793C89.7003 57.8967 90.2884 59.2123 90.4678 61.0264C90.7497 63.8771 89.4654 65.4434 86.6147 65.7253L84.6711 65.9176L85.1324 70.5823L81.2451 70.9668L79.9636 69.9159ZM90.3952 56.3232L91.5486 67.9851L93.8809 67.7544L93.4196 63.0897L94.508 62.982L97.6672 67.3799L100.357 67.1139L97.1608 62.6568C98.7598 61.9962 99.4706 60.7693 99.2932 58.9759C99.0625 56.6436 97.781 55.5927 95.4486 55.8234L90.3952 56.3232ZM92.9582 58.4249L95.6793 58.1558C96.4568 58.0789 96.8839 58.4292 96.9608 59.2066C97.0377 59.9841 96.6874 60.4113 95.91 60.4882L93.1889 60.7573L92.9582 58.4249ZM99.5879 56.0028C100.585 56.8201 101.173 58.1358 101.352 59.9499C101.567 62.1268 101.002 63.4964 99.6546 64.0588L103.068 68.8084L98.5746 69.2528L97.2931 68.202L95.6631 65.9295L96.0168 69.5058L92.1295 69.8903L90.848 68.8394L89.5408 55.6227L95.3717 55.046C97.1858 54.8665 98.5912 55.1855 99.5879 56.0028ZM106.333 54.7469L104.778 54.9007C102.446 55.1314 101.395 56.4129 101.626 58.7453L102.087 63.41C102.318 65.7424 103.599 66.7932 105.932 66.5625L107.486 66.4088C109.819 66.1781 110.87 64.8965 110.639 62.5642L110.178 57.8994C109.947 55.5671 108.665 54.5162 106.333 54.7469ZM107.845 58.1301L108.307 62.7949C108.383 63.5723 108.033 63.9995 107.256 64.0764L105.701 64.2302C104.923 64.3071 104.496 63.9568 104.419 63.1793L103.958 58.5146C103.881 57.7371 104.231 57.31 105.009 57.2331L106.564 57.0793C107.341 57.0024 107.768 57.3527 107.845 58.1301ZM106.401 63.3758L107.179 63.2989C107.438 63.2733 107.555 63.1309 107.529 62.8717L107.145 58.9845C106.367 59.0614 106.017 59.4885 106.094 60.266L106.401 63.3758ZM103.074 67.434C102.077 66.6167 101.489 65.301 101.309 63.4869L100.848 58.8222C100.566 55.9715 101.851 54.4052 104.701 54.1232L106.256 53.9694C108.07 53.79 109.476 54.109 110.472 54.9263C111.469 55.7436 112.057 57.0593 112.237 58.8734L112.698 63.5381C112.98 66.3888 111.696 67.9551 108.845 68.2371L107.29 68.3908C105.476 68.5703 104.07 68.2513 103.074 67.434ZM119.191 61.7183C119.268 62.4958 118.918 62.923 118.14 62.9999L116.585 63.1537C115.808 63.2305 115.381 62.8803 115.304 62.1028L115.265 61.7141L112.933 61.9448L112.971 62.3335C113.202 64.6659 114.484 65.7167 116.816 65.486L118.371 65.3322C120.703 65.1016 121.754 63.82 121.523 61.4877L120.716 53.3244L118.384 53.555L119.191 61.7183ZM117.286 62.2993L118.063 62.2224C118.322 62.1968 118.439 62.0544 118.414 61.7952L117.529 52.8545L121.417 52.47L122.698 53.5209L123.582 62.4616C123.864 65.3123 122.58 66.8786 119.729 67.1605L118.174 67.3143C116.36 67.4937 114.955 67.1748 113.958 66.3575C112.961 65.5401 112.373 64.2245 112.194 62.4104L112.079 61.2442L115.966 60.8597L117.247 61.9106L117.286 62.2993ZM126.303 62.1925L126.073 59.8601L130.737 59.3988L130.507 57.0664L125.842 57.5277L125.611 55.1954L131.054 54.6571L130.823 52.3247L123.048 53.0937L124.202 64.7555L131.976 63.9866L131.746 61.6542L126.303 62.1925ZM131.246 56.6008L132.489 57.2629L132.873 61.1502L133.728 61.8507L134.112 65.738L124.783 66.6607L123.501 65.6099L122.194 52.3931L131.523 51.4704L132.805 52.5212L133.189 56.4085L131.246 56.6008ZM142.053 54.7468C141.823 52.4144 140.541 51.3636 138.209 51.5943L136.654 51.748C134.321 51.9787 133.271 53.2602 133.501 55.5926L133.963 60.2574C134.193 62.5897 135.475 63.6406 137.807 63.4099L139.362 63.2561C141.695 63.0254 142.745 61.7439 142.515 59.4115L142.476 59.0228L140.144 59.2535L140.182 59.6422C140.259 60.4197 139.909 60.8468 139.131 60.9237L137.577 61.0775C136.799 61.1544 136.372 60.8041 136.295 60.0267L135.834 55.3619C135.757 54.5845 136.107 54.1573 136.885 54.0804L138.439 53.9266C139.217 53.8497 139.644 54.2 139.721 54.9775L139.759 55.3662L142.092 55.1355L142.053 54.7468ZM134.949 64.2813C133.953 63.464 133.365 62.1483 133.185 60.3343L132.724 55.6695C132.442 52.8188 133.726 51.2525 136.577 50.9706L138.132 50.8168C139.946 50.6374 141.351 50.9563 142.348 51.7737C143.345 52.591 143.933 53.9067 144.112 55.7207L144.228 56.8869L140.34 57.2714L139.059 56.2205L139.02 55.8318L138.243 55.9087C137.984 55.9343 137.867 56.0767 137.893 56.3359L138.277 60.2232L139.055 60.1463C139.314 60.1206 139.43 59.9783 139.405 59.7191L139.29 58.5529L143.177 58.1684L144.458 59.2193L144.574 60.3855C144.856 63.2362 143.571 64.8025 140.721 65.0844L139.166 65.2382C137.352 65.4176 135.946 65.0987 134.949 64.2813ZM149.713 52.8117L152.822 52.5041L152.592 50.1717L144.04 51.0176L144.27 53.3499L147.38 53.0423L148.303 62.3718L150.635 62.1411L149.713 52.8117ZM143.57 54.2043L143.185 50.317L153.292 49.3174L154.574 50.3682L154.958 54.2555L151.848 54.5631L152.771 63.8926L148.884 64.277L147.602 63.2262L146.795 55.0629L144.851 55.2551L143.57 54.2043ZM159.978 49.4412L158.423 49.595C156.09 49.8257 155.039 51.1072 155.27 53.4396C155.501 55.772 156.782 56.8228 159.115 56.5921L160.67 56.4383C161.447 56.3614 161.874 56.7117 161.951 57.4892C162.028 58.2666 161.678 58.6938 160.9 58.7707L159.345 58.9245C158.568 59.0014 158.154 58.7807 158.102 58.2624L155.77 58.4931C155.975 60.5663 157.244 61.4875 159.576 61.2569L161.131 61.1031C163.463 60.8724 164.514 59.5909 164.283 57.2585C164.053 54.9261 162.771 53.8753 160.439 54.106L158.884 54.2598C158.107 54.3366 157.679 53.9864 157.602 53.2089C157.526 52.4315 157.876 52.0043 158.653 51.9274L160.208 51.7736C160.986 51.6967 161.4 51.9174 161.451 52.4357L163.784 52.205C163.579 50.1318 162.31 49.2105 159.978 49.4412ZM156.593 57.0535C155.372 56.5096 154.672 55.3306 154.493 53.5165C154.211 50.6658 155.495 49.0995 158.346 48.8176L159.901 48.6638C161.637 48.492 163.023 48.826 164.058 49.6657C165.099 50.4996 165.719 51.9299 165.92 53.9564L163.774 54.1687C164.737 54.5967 165.387 55.1867 165.723 55.9385C166.059 56.6904 166.266 57.455 166.342 58.2325C166.624 61.0831 165.34 62.6494 162.489 62.9314L160.934 63.0852C159.198 63.2569 157.81 62.9232 156.769 62.0841C155.734 61.2496 155.116 59.8191 154.916 57.7925L157.061 57.5803C156.889 57.4246 156.733 57.249 156.593 57.0535Z" fill="black"/>
</g>
<defs>
<clipPath id="clip0_6_11">
<rect width="229" height="138" fill="white"/>
</clipPath>
</defs>
</svg>

<svg xmlns="http://www.w3.org/2000/svg" width="229" height="138" fill="none"><g clip-path="url(#a)"><path fill="#F7F7F7" d="m158.01 94.629 42.938 3.942-10.878-9.857-10.877-9.857 4.58-.912 42.937-8.55-22.327-5.357-28.625-6.867 6.344-5.125 23.426-18.926-16.603 2.067-30.915 3.847-.572-7.491-1.718-22.474-2.417 1.577-30.215 19.714-4.402-3.549-19.071-15.377-9.501 16.955-3.094 5.52L45.429 21.29 38.93 19.32l11.14 16.166 4.89 7.097-39.932 2.366-13.31.788L34.35 63.915l6.297 3.508-16.495 13.406 50.846-1.183-10.444 9.651L53.09 104.88l-2.71 3.683 50.38-20.243 10.305 35.029 13.74-22.412 6.298-10.646 32.408 17.349-5.501-13.011Z"/><path fill="#000" d="M45.429 21.291 87.02 33.91l3.094-5.52-49.467-14.983 4.782 7.885ZM54.96 42.583l-4.89-7.097-46.635 2.76 11.593 6.703 39.932-2.366ZM40.648 67.423l-6.298-3.508-20.61 16.914h10.412l16.495-13.406ZM64.692 89.109l-6.297.188-13.168 18.343 7.863-2.76 11.464-15.583.138-.188ZM179.193 78.857l10.877 9.857h5.153l-11.45-10.769-4.58.912ZM175.757 57.171l28.625 6.867 13.74-2.924-36.02-9.068-6.345 5.125ZM158.01 39.034l30.915-3.847 10.305-8.376-41.792 4.732.572 7.491ZM123.087 30.36l30.216-19.714V1.577l-34.617 25.234 4.401 3.549Z"/><path fill="#000" d="m24.152 80.829-12.13 9.857 46.373-1.389 6.297-.188-.138.188 10.444-9.651-50.846 1.183ZM92.172 99.754l10.878 36.669 8.015-13.074L100.76 88.32l-50.38 20.243-7.443 10.117 49.236-18.926ZM124.805 100.937l46.372 24.84-7.666-18.137-32.409-17.349-6.297 10.646Z"/><path stroke="#000" d="m124.805 100.937 46.373 24.84-7.667-18.137m-38.706-6.703-13.74 22.412m13.74-22.412 6.298-10.646 32.408 17.349m0 0-5.501-13.011 42.938 3.942-10.878-9.857m-79.005 34.635-8.015 13.074-10.877-36.669-49.236 18.926 7.443-10.117m60.685 14.786L100.76 88.32l-50.38 20.243m139.69-19.849-10.877-9.857 4.58-.912m6.297 10.77h5.153l-11.45-10.77m0 0 42.937-8.55-22.327-5.357m0 0-28.625-6.867 6.344-5.125m22.281 11.992 13.74-2.924-36.021-9.068m0 0 23.426-18.926-16.603 2.067m0 0-30.915 3.847-.572-7.491m31.487 3.644 10.305-8.376-41.792 4.732m0 0L155.72 9.069l-2.417 1.577m0 0L123.088 30.36l-4.402-3.549m34.617-16.165V1.577l-34.617 25.234m0 0L99.615 11.434 90.114 28.39m0 0-3.094 5.52L45.429 21.29m44.685 7.098L40.647 13.406l4.782 7.885m0 0L38.93 19.32l11.14 16.166m0 0 4.89 7.097-39.932 2.366m35.041-9.463-46.634 2.76 11.593 6.703m0 0-13.31.788L34.35 63.915m0 0 6.297 3.508-16.495 13.406M34.35 63.915 13.74 80.829h10.412m0 0-12.13 9.857 46.373-1.389m-34.243-8.468 50.846-1.183-10.444 9.651m-6.159 0 6.297-.188-.138.188m-6.159 0L45.227 107.64l7.863-2.76m11.464-15.583L53.09 104.88m0 0-2.71 3.683"/><path fill="#000" d="m58.846 59.444-1.555.153c-2.332.231-3.383 1.513-3.152 3.845l.46 4.665c.232 2.332 1.513 3.383 3.846 3.152l1.554-.154c2.333-.23 3.384-1.512 3.153-3.844-.23-2.332-1.512-3.383-3.845-3.153l-1.555.154c-.259.026-.644.098-1.156.216l-.125-1.267c-.077-.777.273-1.204 1.05-1.281l1.556-.154c.777-.077 1.192.144 1.243.662l2.332-.23c-.205-2.074-1.474-2.995-3.806-2.764Zm.923 9.33-1.555.153c-.778.077-1.205-.274-1.282-1.051-.077-.778.274-1.205 1.051-1.282l1.555-.153c.778-.077 1.205.273 1.282 1.05.076.778-.274 1.205-1.051 1.282Zm-4.182 3.357c-.997-.818-1.585-2.133-1.765-3.947l-.46-4.665c-.283-2.85 1.002-4.417 3.852-4.7l1.555-.153c1.736-.172 3.122.162 4.158 1.002 1.04.834 1.66 2.264 1.861 4.29l-2.146.213c1.533.895 2.39 2.25 2.569 4.064.282 2.85-1.002 4.417-3.853 4.699l-1.555.154c-1.814.179-3.22-.14-4.216-.957Zm13.742-1.948 1.555-.154c2.332-.23 3.383-1.512 3.152-3.845l-.077-.777c-.23-2.332-1.512-3.383-3.844-3.153l-1.555.154a10 10 0 0 0-1.156.216l-.164-1.655 6.22-.616-.231-2.332-8.552.846.692 6.997 2.332-.23c-.051-.519.312-.817 1.09-.894l1.555-.153c.777-.077 1.204.273 1.281 1.05l.077.778c.077.777-.273 1.205-1.05 1.281l-1.556.154c-.777.077-1.192-.143-1.243-.662l-2.332.23c.205 2.074 1.474 2.995 3.806 2.765Zm1.598-3.691-.778.077c-.181.018-.288.16-.32.424l.747-.074c.26-.025.376-.168.35-.427Zm4.284-8.275.385 3.888-2.146.212c1.533.895 2.389 2.25 2.568 4.064l.077.777c.282 2.851-1.002 4.417-3.853 4.7l-1.555.153c-1.736.172-3.125-.162-4.165-1.001-1.035-.835-1.653-2.265-1.854-4.292l-.846-8.552 10.108-1 1.281 1.052Zm4.3-.817 1.153 11.662 2.332-.231-.46-4.665 2.72-.269c2.333-.23 3.383-1.512 3.153-3.844-.23-2.333-1.512-3.384-3.845-3.153l-5.053.5Zm2.563 2.101 2.72-.269c.778-.077 1.206.274 1.282 1.051.077.778-.273 1.205-1.05 1.282l-2.721.269-.231-2.333Zm-2.11 10.415-1.308-13.217 5.831-.576c1.814-.18 3.22.139 4.217.956.996.818 1.584 2.133 1.764 3.947.282 2.851-1.003 4.417-3.853 4.7l-1.944.192.461 4.664-3.887.385-1.281-1.051Zm10.431-13.593 1.154 11.662 2.332-.23-.461-4.665 1.088-.108 3.16 4.398 2.689-.266-3.196-4.457c1.599-.66 2.31-1.888 2.132-3.681-.23-2.332-1.512-3.383-3.844-3.153l-5.054.5Zm2.563 2.102 2.721-.27c.778-.076 1.205.274 1.282 1.052.077.777-.274 1.204-1.051 1.281l-2.721.27-.23-2.333Zm6.63-2.422c.997.817 1.585 2.133 1.764 3.947.215 2.177-.35 3.546-1.697 4.109l3.413 4.75-4.493.444-1.282-1.051-1.63-2.272.354 3.576-3.888.384-1.281-1.05-1.307-13.217 5.83-.577c1.815-.18 3.22.14 4.217.957Zm6.745-1.256-1.555.154c-2.332.23-3.383 1.512-3.152 3.844l.461 4.665c.231 2.332 1.512 3.383 3.845 3.153l1.554-.154c2.333-.23 3.384-1.513 3.153-3.845l-.461-4.665c-.231-2.332-1.513-3.383-3.845-3.152Zm1.512 3.383.462 4.665c.076.777-.274 1.204-1.051 1.281l-1.555.154c-.778.077-1.205-.273-1.282-1.05l-.461-4.665c-.077-.778.273-1.205 1.051-1.282l1.555-.154c.777-.077 1.204.274 1.281 1.051Zm-1.444 5.246.778-.077c.259-.026.376-.168.35-.427l-.384-3.888c-.778.077-1.128.505-1.051 1.282l.307 3.11Zm-3.327 4.058c-.997-.817-1.585-2.133-1.765-3.947l-.461-4.665c-.282-2.85 1.003-4.417 3.853-4.699l1.555-.154c1.814-.179 3.22.14 4.216.957.997.818 1.585 2.133 1.765 3.947l.461 4.665c.282 2.85-1.002 4.417-3.853 4.7l-1.555.153c-1.814.18-3.22-.14-4.216-.957Zm16.117-5.716c.077.778-.273 1.205-1.051 1.282l-1.555.154c-.777.076-1.204-.274-1.281-1.051l-.039-.389-2.332.23.038.39c.231 2.332 1.513 3.383 3.845 3.152l1.555-.154c2.332-.23 3.383-1.512 3.152-3.844l-.807-8.164-2.332.231.807 8.163Zm-1.905.581.777-.077c.259-.025.376-.168.351-.427l-.885-8.94 3.888-.385 1.281 1.05.884 8.942c.282 2.85-1.002 4.417-3.853 4.698l-1.555.154c-1.814.18-3.219-.14-4.216-.956-.997-.818-1.585-2.133-1.764-3.948l-.115-1.166 3.887-.384 1.281 1.05.039.39Zm9.017-.106-.23-2.333 4.664-.461-.23-2.333-4.665.462-.231-2.333 5.443-.538-.231-2.332-7.775.769 1.154 11.661 7.774-.768-.23-2.333-5.443.538Zm4.943-5.592 1.243.662.384 3.887.855.7.384 3.888-9.329.923-1.282-1.051-1.307-13.217 9.329-.923 1.282 1.051.384 3.887-1.943.193Zm10.807-1.854c-.23-2.333-1.512-3.383-3.844-3.153l-1.555.154c-2.333.23-3.383 1.512-3.153 3.845l.462 4.664c.23 2.333 1.512 3.384 3.844 3.153l1.555-.154c2.333-.23 3.383-1.512 3.153-3.845l-.039-.388-2.332.23.038.39c.077.777-.273 1.204-1.051 1.28l-1.554.154c-.778.077-1.205-.273-1.282-1.05l-.461-4.665c-.077-.778.273-1.205 1.051-1.282l1.554-.153c.778-.077 1.205.273 1.282 1.05l.038.39 2.333-.231-.039-.39Zm-7.104 9.534c-.996-.817-1.584-2.133-1.764-3.947l-.461-4.665c-.282-2.85 1.002-4.416 3.853-4.698l1.555-.154c1.814-.18 3.219.14 4.216.957.997.817 1.585 2.133 1.764 3.947l.116 1.166-3.888.384-1.281-1.05-.039-.39-.777.078c-.259.025-.376.168-.35.427l.384 3.887.778-.077c.259-.025.375-.168.35-.427l-.115-1.166 3.887-.385 1.281 1.051.116 1.166c.282 2.851-1.003 4.417-3.853 4.7l-1.555.153c-1.814.18-3.22-.14-4.217-.957Zm14.764-11.47 3.109-.307-.23-2.332-8.552.846.23 2.332 3.11-.308.923 9.33 2.332-.23-.922-9.33Zm-6.143 1.393-.385-3.887 10.107-1 1.282 1.051.384 3.887-3.11.308.923 9.33-3.887.384-1.282-1.05-.807-8.164-1.944.192-1.281-1.05Zm16.408-4.763-1.555.154c-2.333.23-3.384 1.512-3.153 3.845.231 2.332 1.512 3.383 3.845 3.152l1.555-.154c.777-.077 1.204.274 1.281 1.051.077.778-.273 1.205-1.051 1.282l-1.555.154c-.777.076-1.191-.144-1.243-.663l-2.332.231c.205 2.073 1.474 2.994 3.806 2.764l1.555-.154c2.332-.23 3.383-1.512 3.152-3.845-.23-2.332-1.512-3.383-3.844-3.152l-1.555.154c-.777.077-1.205-.274-1.282-1.051-.076-.778.274-1.205 1.051-1.282l1.555-.153c.778-.077 1.192.143 1.243.662l2.333-.231c-.205-2.073-1.474-2.994-3.806-2.764Zm-3.385 7.612c-1.221-.543-1.921-1.722-2.1-3.536-.282-2.851 1.002-4.418 3.853-4.7l1.555-.153c1.736-.172 3.122.162 4.157 1.002 1.041.834 1.661 2.264 1.862 4.29l-2.146.213c.963.428 1.613 1.018 1.949 1.77a7.35 7.35 0 0 1 .619 2.294c.282 2.85-1.002 4.416-3.853 4.698l-1.555.154c-1.736.172-3.124-.162-4.165-1-1.035-.835-1.653-2.266-1.853-4.293l2.145-.212a3.296 3.296 0 0 1-.468-.526Z"/></g><defs><clipPath id="a"><path fill="#fff" d="M0 0h229v138H0z"/></clipPath></defs></svg>
